X:3355
T:Kävelypoloneesi
O:england
C:Paljetti: Minna Luoma
M:2/4
L:1/16
K:G
D2G2 ~G2FE|F2D2 A3A|\
ABAG F2D2|G2DG B2GB|\
d2ed cBAG|1 FGAF D4 D4:|2  FGAF G4 G4||
|:d3d dcBA|G4 FGAF|G6 FG|A3A A2B2|\
c2e2 e2d2|c2B2 A2~G2 F2A2|d3d dcBA|
G4 FGAF|G6 FG|A3A A2B2|\
c2e2 e2d2|F2A2 G4 G4:|\
|:A2AG ~F2~E2|
D2C2 B,2D2|G2DG B2GB (3ded c2B2|\
A2AG ~F2~E2|D2C2 B,2D2|1 GFGA G6 FG:|2 GFGA G8||


